src/earn/assets/images/arrow-next.svg

<?xml version="1.0" encoding="UTF-8" standalone="no"?>
<svg width="12px" height="19px" viewBox="0 0 12 19" version="1.1" xmlns="http://www.w3.org/2000/svg" xmlns:xlink="http://www.w3.org/1999/xlink" xmlnsSketch="http://www.bohemiancoding.com/sketch/ns">
    <!-- Generator: Sketch 3.3.3 (12081) - http://www.bohemiancoding.com/sketch -->
    <title>ico-arrow-big-right</title>
    <desc>Created with Sketch.</desc>
    <defs></defs>
    <g id="ASSETS-EXPORT" stroke="none" stroke-width="1" fill="none" fill-rule="evenodd" sketchType="MSPage">
        <g id="Assets" sketchType="MSArtboardGroup" transform="translate(-929.000000, -252.000000)" fill="#A3A3AE">
            <path d="M938.025853,261.50145 L930.137711,253.305117 C929.841671,253.006868 929.841671,252.524146 930.137711,252.223687 C930.433751,251.925438 930.912055,251.925438 931.208095,252.223687 L939.857325,260.959078 C940.153365,261.258432 940.153365,261.742258 939.857325,262.040508 L931.208095,270.775899 C930.912055,271.075253 930.433751,271.074148 930.137711,270.775899 C929.841671,270.478754 929.841671,269.994927 930.137711,269.694469 L938.025853,261.50145 L938.025853,261.50145 Z" id="ico-arrow-big-right" sketchType="MSShapeGroup"></path>
        </g>
    </g>
</svg>

<svg xmlns="http://www.w3.org/2000/svg" width="12" height="19"><g id="ASSETS-EXPORT" fill="none" fill-rule="evenodd" stroke="none" stroke-width="1"><g id="Assets" fill="#A3A3AE" transform="translate(-929 -252)"><path id="ico-arrow-big-right" d="m938.026 261.501-7.888-8.196a.77.77 0 0 1 0-1.081.752.752 0 0 1 1.07 0l8.65 8.735a.77.77 0 0 1 0 1.082l-8.65 8.735a.751.751 0 0 1-1.07 0 .77.77 0 0 1 0-1.082l7.888-8.193Z"/></g></g></svg>
